X: 26
T:Madame Bonaparte
M:4/4
L:1/8
Q:120     %Tempo
C:Traditional
K:G
dc |:B2 BA BdBG |c2 cB cecA |GBdf gfge |
d2 de dcBA |B2 BA BdBG |cBcd efge |dBGB (3cBA FA |
G2 GF G2 D2 :||:GBdf gfge |d2 de dcBA |GBdf gfge |
d2 de dcBA |(3Bcd Gd Bd G2 |ceAe ce A2 |(3Bcd Gd Bd G2 |
FADA FA D2 |(3Bcd Gd Bd G2 |cBcd efge |dBGB (3cBA FA |
G2 GF G2 z2 :|
%  ABC2Win Version 2.1 24/06/2002
